X:165
T:the Ould Highland Laddy
A:Wyresdale, Lancashire
B:E and J Winder, 1835-41
L:1/4
M:C|
O:England
Z:Richard Robinson 
%%TUNEURL: http://www.leeds.ac.uk/music/Info/RRTuneBk/gettune/00000ea0.html
%%ID:00000ea0
K:A mixolydian
f |\
eA cA | d2 B2 | d(B B)d | f(B B)f |\
eA cf | e2 c2 | c(A A)c | eA  A ::
a |\
(a/g/f/e/)  f/g/a/f/  | e2 c2 | d(B B)d | fB Ba | \
(a/g/f/g/) (e/f/g/a/) | e2 c2 |1 eA Af | eA A :|2 e/a/a/a/ a/a/a/a/ a2 :|
